X:2
T:Skye dance 3
R:reel
M:4/4
L:1/8
K:Ador
|:AAe2 AAAA| B2A2 G2GG | AAe2 AAAA | AGEG A2AA :| 
|:A2A2 GEED | G2GG GABG | AEAc BAAG | AcBG A2A2:|
